src/status/16/fcitx-cangjie.svg

<?xml version="1.0" encoding="UTF-8"?>
<svg width="16" height="16" version="1.1" xmlns="http://www.w3.org/2000/svg">
 <defs>
  <style id="current-color-scheme" type="text/css"/>
 </defs>
 <path d="m7.584 1.723h0.832c1.844 2.765 5.647 3.28 5.647 3.28l-0.125 0.993s-0.834-0.124-1.938-0.535v4.539h-7.055c-0.04106 0.33962-0.11473 0.6745-0.22 1h7.275v3h-8v-1.377l-0.066 0.125c-0.52 0.911-1.043 1.565-1.043 1.565l-0.782-0.625s0.478-0.597 0.957-1.436c0.48-0.839 0.934-1.919 0.934-2.752v-4.04c-0.62761 0.23951-1.2765 0.41898-1.938 0.536l-0.124-0.992s3.802-0.516 5.646-3.281zm0.416 0.98c-0.859 1.07-1.934 1.799-2.934 2.297h2.532l-0.875-0.584 0.554-0.832 1.5 1-0.277 0.416h2.434c-1-0.498-2.075-1.227-2.934-2.297zm-3 3.297v1h5v1h-5v1h6v-3zm0 6v1h6v-1z" color="#363636" fill="currentColor"/>
 <path class="ColorScheme-Text" d="m3 0c-1.662 0-3 1.338-3 3v10c0 1.662 1.338 3 3 3h9.9989c1.662 0 3-1.338 3-3v-10c0-1.662-1.338-3-3-3zm0 1h9.9989c1.108 0 2 0.892 2 2v10c0 1.108-0.892 2-2 2h-9.9989c-1.108 0-2-0.892-2-2v-10c0-1.108 0.892-2 2-2z" color="#363636" fill="currentColor"/>
</svg>

<svg xmlns="http://www.w3.org/2000/svg" width="16" height="16">
    <path fill="currentColor" fill-opacity=".7" d="M7.584 1.723h.832c1.844 2.765 5.647 3.28 5.647 3.28l-.125.993s-.834-.124-1.938-.535V10H4.945c-.041.34-.115.675-.22 1H12v3H4v-1.377l-.066.125c-.52.911-1.043 1.565-1.043 1.565l-.782-.625s.478-.597.957-1.436C3.546 11.413 4 10.333 4 9.5V5.46c-.628.24-1.276.419-1.938.536l-.124-.992s3.802-.516 5.646-3.281zm.416.98C7.141 3.773 6.066 4.502 5.066 5h2.532l-.875-.584.554-.832 1.5 1L8.5 5h2.434c-1-.498-2.075-1.227-2.934-2.297zM5 6v1h5v1H5v1h6V6zm0 6v1h6v-1z" color="#050505"/>
    <path fill="currentColor" fill-opacity=".7" d="M3 0C1.338 0 0 1.338 0 3v10c0 1.662 1.338 3 3 3h9.999c1.662 0 3-1.338 3-3V3c0-1.662-1.338-3-3-3zm0 1h9.999c1.108 0 2 .892 2 2v10c0 1.108-.892 2-2 2H3c-1.108 0-2-.892-2-2V3c0-1.108.892-2 2-2z" class="ColorScheme-Text" color="#050505"/>
</svg>
